frontend/public/Vector.svg

<svg width="18" height="16" viewBox="0 0 18 16" fill="none" xmlns="http://www.w3.org/2000/svg">
<path fill-rule="evenodd" clip-rule="evenodd" d="M6.75 2C5.50736 2 4.5 3.00736 4.5 4.25C4.5 5.49264 5.50736 6.5 6.75 6.5C7.99264 6.5 9 5.49264 9 4.25C9 3.00736 7.99264 2 6.75 2ZM3 4.25C3 2.17893 4.67893 0.5 6.75 0.5C8.82107 0.5 10.5 2.17893 10.5 4.25C10.5 6.32107 8.82107 8 6.75 8C4.67893 8 3 6.32107 3 4.25ZM11.2734 1.16147C11.3762 0.760205 11.7848 0.5182 12.186 0.620941C12.9927 0.827473 13.7076 1.2966 14.2182 1.95436C14.7288 2.61212 15.0059 3.42109 15.0059 4.25375C15.0059 5.08641 14.7288 5.89539 14.2182 6.55315C13.7076 7.21091 12.9927 7.68003 12.186 7.88657C11.7848 7.98931 11.3762 7.7473 11.2734 7.34603C11.1707 6.94476 11.4127 6.53618 11.814 6.43344C12.298 6.30952 12.7269 6.02805 13.0333 5.63339C13.3396 5.23874 13.5059 4.75335 13.5059 4.25375C13.5059 3.75416 13.3396 3.26877 13.0333 2.87412C12.7269 2.47946 12.298 2.19799 11.814 2.07407C11.4127 1.97133 11.1707 1.56274 11.2734 1.16147ZM1.09835 10.5984C1.80161 9.89509 2.75544 9.5 3.75 9.5H9.75C10.7446 9.5 11.6984 9.89509 12.4017 10.5984C13.1049 11.3016 13.5 12.2554 13.5 13.25V14.75C13.5 15.1642 13.1642 15.5 12.75 15.5C12.3358 15.5 12 15.1642 12 14.75V13.25C12 12.6533 11.7629 12.081 11.341 11.659C10.919 11.2371 10.3467 11 9.75 11H3.75C3.15326 11 2.58097 11.2371 2.15901 11.659C1.73705 12.081 1.5 12.6533 1.5 13.25V14.75C1.5 15.1642 1.16421 15.5 0.75 15.5C0.335786 15.5 0 15.1642 0 14.75V13.25C0 12.2554 0.395088 11.3016 1.09835 10.5984ZM14.2738 10.16C14.3774 9.75894 14.7864 9.51777 15.1875 9.62132C15.992 9.82904 16.7047 10.2981 17.2138 10.9547C17.7228 11.6114 17.9994 12.4186 18 13.2494V14.75C18 15.1642 17.6642 15.5 17.25 15.5C16.8358 15.5 16.5 15.1642 16.5 14.75V13.2506C16.4996 12.752 16.3337 12.2677 16.0283 11.8737C15.7228 11.4797 15.2952 11.1983 14.8125 11.0737C14.4114 10.9701 14.1703 10.5611 14.2738 10.16Z" fill="#284CE5"/>
</svg>

<svg xmlns="http://www.w3.org/2000/svg" width="18" height="16" fill="none"><path fill="#284CE5" fill-rule="evenodd" d="M6.75 2a2.25 2.25 0 1 0 0 4.5 2.25 2.25 0 0 0 0-4.5M3 4.25a3.75 3.75 0 1 1 7.5 0 3.75 3.75 0 0 1-7.5 0m8.273-3.089a.75.75 0 0 1 .913-.54 3.75 3.75 0 0 1 0 7.266.75.75 0 0 1-.372-1.454 2.25 2.25 0 0 0 0-4.359.75.75 0 0 1-.54-.913M1.098 10.598A3.75 3.75 0 0 1 3.75 9.5h6a3.75 3.75 0 0 1 3.75 3.75v1.5a.75.75 0 0 1-1.5 0v-1.5A2.25 2.25 0 0 0 9.75 11h-6a2.25 2.25 0 0 0-2.25 2.25v1.5a.75.75 0 0 1-1.5 0v-1.5a3.75 3.75 0 0 1 1.098-2.652m13.176-.438a.75.75 0 0 1 .914-.539A3.75 3.75 0 0 1 18 13.25v1.501a.75.75 0 0 1-1.5 0v-1.5a2.25 2.25 0 0 0-1.687-2.176.75.75 0 0 1-.54-.914" clip-rule="evenodd"/></svg>
